components/Common/Svg/svgs/titledSwagger.svg

<svg
  width="96"
  height="148"
  viewBox="0 0 96 148"
  fill="none"
  xmlns="http://www.w3.org/2000/svg"
>
  <path
    d="M15.364 138.126C14.536 138.126 13.792 137.982 13.132 137.694C12.484 137.394 11.974 136.986 11.602 136.47C11.23 135.942 11.038 135.336 11.026 134.652H12.772C12.832 135.24 13.072 135.738 13.492 136.146C13.924 136.542 14.548 136.74 15.364 136.74C16.144 136.74 16.756 136.548 17.2 136.164C17.656 135.768 17.884 135.264 17.884 134.652C17.884 134.172 17.752 133.782 17.488 133.482C17.224 133.182 16.894 132.954 16.498 132.798C16.102 132.642 15.568 132.474 14.896 132.294C14.068 132.078 13.402 131.862 12.898 131.646C12.406 131.43 11.98 131.094 11.62 130.638C11.272 130.17 11.098 129.546 11.098 128.766C11.098 128.082 11.272 127.476 11.62 126.948C11.968 126.42 12.454 126.012 13.078 125.724C13.714 125.436 14.44 125.292 15.256 125.292C16.432 125.292 17.392 125.586 18.136 126.174C18.892 126.762 19.318 127.542 19.414 128.514H17.614C17.554 128.034 17.302 127.614 16.858 127.254C16.414 126.882 15.826 126.696 15.094 126.696C14.41 126.696 13.852 126.876 13.42 127.236C12.988 127.584 12.772 128.076 12.772 128.712C12.772 129.168 12.898 129.54 13.15 129.828C13.414 130.116 13.732 130.338 14.104 130.494C14.488 130.638 15.022 130.806 15.706 130.998C16.534 131.226 17.2 131.454 17.704 131.682C18.208 131.898 18.64 132.24 19 132.708C19.36 133.164 19.54 133.788 19.54 134.58C19.54 135.192 19.378 135.768 19.054 136.308C18.73 136.848 18.25 137.286 17.614 137.622C16.978 137.958 16.228 138.126 15.364 138.126ZM35.0905 128.136L32.0125 138H30.3205L27.9445 130.17L25.5685 138H23.8765L20.7805 128.136H22.4545L24.7225 136.416L27.1705 128.136H28.8445L31.2385 136.434L33.4705 128.136H35.0905ZM36.1041 133.032C36.1041 132.024 36.3081 131.142 36.7161 130.386C37.1241 129.618 37.6821 129.024 38.3901 128.604C39.1101 128.184 39.9081 127.974 40.7841 127.974C41.6481 127.974 42.3981 128.16 43.0341 128.532C43.6701 128.904 44.1441 129.372 44.4561 129.936V128.136H46.1121V138H44.4561V136.164C44.1321 136.74 43.6461 137.22 42.9981 137.604C42.3621 137.976 41.6181 138.162 40.7661 138.162C39.8901 138.162 39.0981 137.946 38.3901 137.514C37.6821 137.082 37.1241 136.476 36.7161 135.696C36.3081 134.916 36.1041 134.028 36.1041 133.032ZM44.4561 133.05C44.4561 132.306 44.3061 131.658 44.0061 131.106C43.7061 130.554 43.2981 130.134 42.7821 129.846C42.2781 129.546 41.7201 129.396 41.1081 129.396C40.4961 129.396 39.9381 129.54 39.4341 129.828C38.9301 130.116 38.5281 130.536 38.2281 131.088C37.9281 131.64 37.7781 132.288 37.7781 133.032C37.7781 133.788 37.9281 134.448 38.2281 135.012C38.5281 135.564 38.9301 135.99 39.4341 136.29C39.9381 136.578 40.4961 136.722 41.1081 136.722C41.7201 136.722 42.2781 136.578 42.7821 136.29C43.2981 135.99 43.7061 135.564 44.0061 135.012C44.3061 134.448 44.4561 133.794 44.4561 133.05ZM52.9481 127.974C53.8001 127.974 54.5441 128.16 55.1801 128.532C55.8281 128.904 56.3081 129.372 56.6201 129.936V128.136H58.2761V138.216C58.2761 139.116 58.0841 139.914 57.7001 140.61C57.3161 141.318 56.7641 141.87 56.0441 142.266C55.3361 142.662 54.5081 142.86 53.5601 142.86C52.2641 142.86 51.1841 142.554 50.3201 141.942C49.4561 141.33 48.9461 140.496 48.7901 139.44H50.4101C50.5901 140.04 50.9621 140.52 51.5261 140.88C52.0901 141.252 52.7681 141.438 53.5601 141.438C54.4601 141.438 55.1921 141.156 55.7561 140.592C56.3321 140.028 56.6201 139.236 56.6201 138.216V136.146C56.2961 136.722 55.8161 137.202 55.1801 137.586C54.5441 137.97 53.8001 138.162 52.9481 138.162C52.0721 138.162 51.2741 137.946 50.5541 137.514C49.8461 137.082 49.2881 136.476 48.8801 135.696C48.4721 134.916 48.2681 134.028 48.2681 133.032C48.2681 132.024 48.4721 131.142 48.8801 130.386C49.2881 129.618 49.8461 129.024 50.5541 128.604C51.2741 128.184 52.0721 127.974 52.9481 127.974ZM56.6201 133.05C56.6201 132.306 56.4701 131.658 56.1701 131.106C55.8701 130.554 55.4621 130.134 54.9461 129.846C54.4421 129.546 53.8841 129.396 53.2721 129.396C52.6601 129.396 52.1021 129.54 51.5981 129.828C51.0941 130.116 50.6921 130.536 50.3921 131.088C50.0921 131.64 49.9421 132.288 49.9421 133.032C49.9421 133.788 50.0921 134.448 50.3921 135.012C50.6921 135.564 51.0941 135.99 51.5981 136.29C52.1021 136.578 52.6601 136.722 53.2721 136.722C53.8841 136.722 54.4421 136.578 54.9461 136.29C55.4621 135.99 55.8701 135.564 56.1701 135.012C56.4701 134.448 56.6201 133.794 56.6201 133.05ZM65.1122 127.974C65.9642 127.974 66.7082 128.16 67.3442 128.532C67.9922 128.904 68.4722 129.372 68.7842 129.936V128.136H70.4402V138.216C70.4402 139.116 70.2482 139.914 69.8642 140.61C69.4802 141.318 68.9282 141.87 68.2082 142.266C67.5002 142.662 66.6722 142.86 65.7242 142.86C64.4282 142.86 63.3482 142.554 62.4842 141.942C61.6202 141.33 61.1102 140.496 60.9542 139.44H62.5742C62.7542 140.04 63.1262 140.52 63.6902 140.88C64.2542 141.252 64.9322 141.438 65.7242 141.438C66.6242 141.438 67.3562 141.156 67.9202 140.592C68.4962 140.028 68.7842 139.236 68.7842 138.216V136.146C68.4602 136.722 67.9802 137.202 67.3442 137.586C66.7082 137.97 65.9642 138.162 65.1122 138.162C64.2362 138.162 63.4382 137.946 62.7182 137.514C62.0102 137.082 61.4522 136.476 61.0442 135.696C60.6362 134.916 60.4322 134.028 60.4322 133.032C60.4322 132.024 60.6362 131.142 61.0442 130.386C61.4522 129.618 62.0102 129.024 62.7182 128.604C63.4382 128.184 64.2362 127.974 65.1122 127.974ZM68.7842 133.05C68.7842 132.306 68.6342 131.658 68.3342 131.106C68.0342 130.554 67.6262 130.134 67.1102 129.846C66.6062 129.546 66.0482 129.396 65.4362 129.396C64.8242 129.396 64.2662 129.54 63.7622 129.828C63.2582 130.116 62.8562 130.536 62.5562 131.088C62.2562 131.64 62.1062 132.288 62.1062 133.032C62.1062 133.788 62.2562 134.448 62.5562 135.012C62.8562 135.564 63.2582 135.99 63.7622 136.29C64.2662 136.578 64.8242 136.722 65.4362 136.722C66.0482 136.722 66.6062 136.578 67.1102 136.29C67.6262 135.99 68.0342 135.564 68.3342 135.012C68.6342 134.448 68.7842 133.794 68.7842 133.05ZM82.2083 132.69C82.2083 133.002 82.1903 133.332 82.1543 133.68H74.2703C74.3303 134.652 74.6603 135.414 75.2603 135.966C75.8723 136.506 76.6103 136.776 77.4743 136.776C78.1823 136.776 78.7703 136.614 79.2383 136.29C79.7183 135.954 80.0543 135.51 80.2463 134.958H82.0103C81.7463 135.906 81.2183 136.68 80.4263 137.28C79.6343 137.868 78.6503 138.162 77.4743 138.162C76.5383 138.162 75.6983 137.952 74.9543 137.532C74.2223 137.112 73.6463 136.518 73.2263 135.75C72.8063 134.97 72.5963 134.07 72.5963 133.05C72.5963 132.03 72.8003 131.136 73.2083 130.368C73.6163 129.6 74.1863 129.012 74.9183 128.604C75.6623 128.184 76.5143 127.974 77.4743 127.974C78.4103 127.974 79.2383 128.178 79.9583 128.586C80.6783 128.994 81.2303 129.558 81.6143 130.278C82.0103 130.986 82.2083 131.79 82.2083 132.69ZM80.5163 132.348C80.5163 131.724 80.3783 131.19 80.1023 130.746C79.8263 130.29 79.4483 129.948 78.9683 129.72C78.5003 129.48 77.9783 129.36 77.4023 129.36C76.5743 129.36 75.8663 129.624 75.2783 130.152C74.7023 130.68 74.3723 131.412 74.2883 132.348H80.5163ZM86.0084 129.738C86.2964 129.174 86.7044 128.736 87.2324 128.424C87.7724 128.112 88.4264 127.956 89.1944 127.956V129.648H88.7624C86.9264 129.648 86.0084 130.644 86.0084 132.636V138H84.3704V128.136H86.0084V129.738Z"
    fill="#A0A0A0"
  ></path>
  <path
    d="M47.9996 85.7222C26.6583 85.7222 9.27734 68.3412 9.27734 47C9.27734 25.6588 26.6583 8.27777 47.9996 8.27777C69.3408 8.27777 86.7218 25.6588 86.7218 47C86.7218 68.3412 69.3408 85.7222 47.9996 85.7222Z"
    fill="#A3A3A3"
  ></path>
  <path
    d="M48 9.93911C68.4723 9.93911 85.1164 26.5277 85.1164 47.0555C85.1164 67.5277 68.5277 84.1719 48 84.1719C27.5277 84.1719 10.8836 67.5832 10.8836 47.0555C10.8836 26.5277 27.5277 9.93911 48 9.93911ZM48 6C25.364 6 7 24.4195 7 47C7 69.5805 25.4195 88 48 88C70.5805 88 89 69.5805 89 47C89 24.4195 70.5805 6 48 6Z"
    fill="#6A6A6A"
  ></path>
  <path
    d="M32.8005 34.0407C32.6891 35.3974 32.8562 36.8083 32.7448 38.2193C32.6335 39.6302 32.4664 40.9869 32.188 42.3436C31.7983 44.2972 30.5177 45.7624 28.7916 47.0106C32.1324 49.127 32.5221 52.4373 32.7448 55.8019C32.8562 57.5927 32.8005 59.4378 33.0232 61.2286C33.1903 62.6395 33.6914 62.9651 35.1947 63.0194C35.8072 63.0194 36.4196 63.0194 37.0878 63.0194V67.3065C32.7448 68.012 29.1257 66.8181 28.2348 63.2365C27.9564 61.934 27.7337 60.5774 27.678 59.2207C27.5667 57.8097 27.7337 56.3445 27.6224 54.9336C27.2883 51.0263 26.7872 49.6697 22.9453 49.5069V44.6228C23.2237 44.5685 23.5021 44.5143 23.7805 44.46C25.8963 44.3515 26.7872 43.7003 27.2883 41.6924C27.511 40.5528 27.6224 39.4131 27.678 38.2193C27.8451 35.9943 27.7894 33.7151 28.1791 31.4901C28.7359 28.2884 30.7404 26.7689 34.1368 26.5518C35.0833 26.4975 36.0299 26.5518 37.1435 26.5518V30.9475C36.698 31.0017 36.3083 31.056 35.8628 31.056C33.1346 30.8932 33.0232 31.8157 32.8005 34.0407ZM38.09 44.1887H38.0343C36.4753 44.1344 35.0833 45.3283 35.0277 46.8478C34.972 48.4215 36.1969 49.7239 37.7559 49.8325H37.923C39.482 49.941 40.8183 48.7471 40.9296 47.2276V47.0648C40.9296 45.4911 39.649 44.1887 38.09 44.1887ZM48.0009 44.1887C46.4419 44.1344 45.1612 45.3283 45.1612 46.7935C45.1612 46.902 45.1612 46.9563 45.1612 47.0648C45.1612 48.7471 46.3305 49.8325 48.1122 49.8325C49.8383 49.8325 50.9519 48.7471 50.9519 46.9563C50.8962 45.274 49.7269 44.1344 48.0009 44.1887ZM58.1345 44.1887C56.5198 44.1344 55.1835 45.3825 55.1278 46.9563C55.1278 48.53 56.4084 49.7782 58.0231 49.7782H58.0788C59.5264 50.0495 61.0298 48.6386 61.0854 47.0106C61.1968 45.4911 59.7491 44.1887 58.1345 44.1887ZM72.1099 44.4057C70.2725 44.3515 69.3816 43.7545 68.8805 42.018C68.6021 40.9326 68.4351 39.793 68.3794 38.7077C68.268 36.6455 68.268 34.5834 68.101 32.4669C67.7669 27.5829 64.1478 25.8463 58.8583 26.7146V30.9475C59.6935 30.9475 60.3616 30.9475 60.9741 30.9475C62.0877 30.9475 62.9785 31.3816 63.0899 32.5755C63.2012 33.6608 63.2012 34.8004 63.3126 35.94C63.5353 38.165 63.6467 40.4442 64.0364 42.6692C64.3705 44.5143 65.6511 45.8709 67.2658 46.9563C64.4819 48.8014 63.6467 51.4062 63.4796 54.3366C63.424 56.3445 63.3683 58.4067 63.2569 60.4146C63.1456 62.2597 62.4774 62.8566 60.5843 62.9109C60.0275 62.9109 59.5264 62.9651 58.914 63.0194V67.3608C60.0275 67.3608 61.0854 67.415 62.0877 67.3608C65.2614 67.198 67.2101 65.6785 67.8226 62.6395C68.101 60.9572 68.268 59.275 68.3237 57.5927C68.4351 56.0732 68.4351 54.4994 68.6021 52.98C68.8248 50.5922 69.9384 49.6154 72.3883 49.4526C72.611 49.3983 72.8337 49.3983 73.0564 49.2898V44.4057C72.6667 44.46 72.3883 44.4057 72.1099 44.4057Z"
    fill="#6A6A6A"
  ></path>
</svg>

<svg width="96" height="148" viewBox="0 0 96 148" fill="none" xmlns="http://www.w3.org/2000/svg"><path d="M15.364 138.126c-.828 0-1.572-.144-2.232-.432-.648-.3-1.158-.708-1.53-1.224a3.178 3.178 0 0 1-.576-1.818h1.746c.06.588.3 1.086.72 1.494.432.396 1.056.594 1.872.594.78 0 1.392-.192 1.836-.576.456-.396.684-.9.684-1.512 0-.48-.132-.87-.396-1.17a2.53 2.53 0 0 0-.99-.684c-.396-.156-.93-.324-1.602-.504-.828-.216-1.494-.432-1.998-.648a3.318 3.318 0 0 1-1.278-1.008c-.348-.468-.522-1.092-.522-1.872 0-.684.174-1.29.522-1.818.348-.528.834-.936 1.458-1.224.636-.288 1.362-.432 2.178-.432 1.176 0 2.136.294 2.88.882.756.588 1.182 1.368 1.278 2.34h-1.8c-.06-.48-.312-.9-.756-1.26-.444-.372-1.032-.558-1.764-.558-.684 0-1.242.18-1.674.54-.432.348-.648.84-.648 1.476 0 .456.126.828.378 1.116.264.288.582.51.954.666.384.144.918.312 1.602.504.828.228 1.494.456 1.998.684.504.216.936.558 1.296 1.026.36.456.54 1.08.54 1.872 0 .612-.162 1.188-.486 1.728-.324.54-.804.978-1.44 1.314-.636.336-1.386.504-2.25.504Zm19.726-9.99L32.012 138H30.32l-2.375-7.83-2.377 7.83h-1.692l-3.096-9.864h1.674l2.268 8.28 2.448-8.28h1.674l2.394 8.298 2.233-8.298h1.62Zm1.014 4.896c0-1.008.204-1.89.612-2.646a4.446 4.446 0 0 1 1.674-1.782c.72-.42 1.518-.63 2.394-.63.864 0 1.614.186 2.25.558.636.372 1.11.84 1.422 1.404v-1.8h1.656V138h-1.656v-1.836c-.324.576-.81 1.056-1.458 1.44-.636.372-1.38.558-2.232.558-.876 0-1.668-.216-2.376-.648-.708-.432-1.266-1.038-1.674-1.818-.408-.78-.612-1.668-.612-2.664Zm8.352.018c0-.744-.15-1.392-.45-1.944a3.098 3.098 0 0 0-1.224-1.26 3.211 3.211 0 0 0-1.674-.45c-.612 0-1.17.144-1.674.432a3.134 3.134 0 0 0-1.206 1.26c-.3.552-.45 1.2-.45 1.944 0 .756.15 1.416.45 1.98.3.552.702.978 1.206 1.278a3.314 3.314 0 0 0 1.674.432c.612 0 1.17-.144 1.674-.432.516-.3.924-.726 1.224-1.278.3-.564.45-1.218.45-1.962Zm8.492-5.076c.852 0 1.596.186 2.232.558.648.372 1.128.84 1.44 1.404v-1.8h1.656v10.08c0 .9-.192 1.698-.576 2.394a4.076 4.076 0 0 1-1.656 1.656c-.708.396-1.536.594-2.484.594-1.296 0-2.376-.306-3.24-.918-.864-.612-1.374-1.446-1.53-2.502h1.62c.18.6.552 1.08 1.116 1.44.564.372 1.242.558 2.034.558.9 0 1.632-.282 2.196-.846.576-.564.864-1.356.864-2.376v-2.07c-.324.576-.804 1.056-1.44 1.44-.636.384-1.38.576-2.232.576a4.564 4.564 0 0 1-2.394-.648c-.708-.432-1.266-1.038-1.674-1.818-.408-.78-.612-1.668-.612-2.664 0-1.008.204-1.89.612-2.646a4.446 4.446 0 0 1 1.674-1.782c.72-.42 1.518-.63 2.394-.63Zm3.672 5.076c0-.744-.15-1.392-.45-1.944a3.098 3.098 0 0 0-1.224-1.26 3.211 3.211 0 0 0-1.674-.45c-.612 0-1.17.144-1.674.432a3.134 3.134 0 0 0-1.206 1.26c-.3.552-.45 1.2-.45 1.944 0 .756.15 1.416.45 1.98.3.552.702.978 1.206 1.278a3.314 3.314 0 0 0 1.674.432c.612 0 1.17-.144 1.674-.432.516-.3.924-.726 1.224-1.278.3-.564.45-1.218.45-1.962Zm8.492-5.076c.852 0 1.596.186 2.232.558.648.372 1.128.84 1.44 1.404v-1.8h1.656v10.08c0 .9-.192 1.698-.576 2.394a4.076 4.076 0 0 1-1.656 1.656c-.708.396-1.536.594-2.484.594-1.296 0-2.376-.306-3.24-.918-.864-.612-1.374-1.446-1.53-2.502h1.62c.18.6.552 1.08 1.116 1.44.564.372 1.242.558 2.034.558.9 0 1.632-.282 2.196-.846.576-.564.864-1.356.864-2.376v-2.07c-.324.576-.804 1.056-1.44 1.44-.636.384-1.38.576-2.232.576a4.564 4.564 0 0 1-2.394-.648c-.708-.432-1.266-1.038-1.674-1.818-.408-.78-.612-1.668-.612-2.664 0-1.008.204-1.89.612-2.646a4.446 4.446 0 0 1 1.674-1.782c.72-.42 1.518-.63 2.394-.63Zm3.672 5.076c0-.744-.15-1.392-.45-1.944a3.098 3.098 0 0 0-1.224-1.26 3.211 3.211 0 0 0-1.674-.45c-.612 0-1.17.144-1.674.432a3.134 3.134 0 0 0-1.206 1.26c-.3.552-.45 1.2-.45 1.944 0 .756.15 1.416.45 1.98.3.552.702.978 1.206 1.278a3.314 3.314 0 0 0 1.674.432c.612 0 1.17-.144 1.674-.432.516-.3.924-.726 1.224-1.278.3-.564.45-1.218.45-1.962Zm13.424-.36c0 .312-.018.642-.054.99H74.27c.06.972.39 1.734.99 2.286.612.54 1.35.81 2.214.81.708 0 1.296-.162 1.764-.486.48-.336.816-.78 1.008-1.332h1.764a4.284 4.284 0 0 1-1.584 2.322c-.792.588-1.776.882-2.952.882-.936 0-1.776-.21-2.52-.63a4.492 4.492 0 0 1-1.728-1.782c-.42-.78-.63-1.68-.63-2.7 0-1.02.204-1.914.612-2.682a4.254 4.254 0 0 1 1.71-1.764c.744-.42 1.596-.63 2.556-.63.936 0 1.764.204 2.484.612.72.408 1.272.972 1.656 1.692.396.708.594 1.512.594 2.412Zm-1.692-.342c0-.624-.138-1.158-.414-1.602a2.605 2.605 0 0 0-1.134-1.026c-.468-.24-.99-.36-1.566-.36-.828 0-1.536.264-2.124.792-.576.528-.906 1.26-.99 2.196h6.228Zm5.492-2.61a3.16 3.16 0 0 1 1.224-1.314c.54-.312 1.194-.468 1.962-.468v1.692h-.432c-1.836 0-2.754.996-2.754 2.988V138H84.37v-9.864h1.638v1.602Z" fill="#A0A0A0"/><path d="M48 85.722C26.658 85.722 9.277 68.342 9.277 47 9.277 25.659 26.658 8.278 48 8.278c21.34 0 38.722 17.38 38.722 38.722 0 21.341-17.381 38.722-38.722 38.722Z" fill="#A3A3A3"/><path d="M48 9.94c20.472 0 37.116 16.588 37.116 37.116 0 20.472-16.588 37.116-37.116 37.116-20.472 0-37.116-16.589-37.116-37.116C10.884 26.528 27.528 9.939 48 9.939ZM48 6C25.364 6 7 24.42 7 47s18.42 41 41 41 41-18.42 41-41S70.58 6 48 6Z" fill="#6A6A6A"/><path d="M32.8 34.04c-.11 1.357.056 2.768-.055 4.18-.111 1.41-.279 2.767-.557 4.124-.39 1.953-1.67 3.418-3.396 4.667 3.34 2.116 3.73 5.426 3.953 8.79.111 1.792.056 3.637.278 5.428.167 1.41.668 1.736 2.172 1.79h1.893v4.288c-4.343.705-7.962-.489-8.853-4.07-.279-1.303-.501-2.66-.557-4.016-.111-1.411.056-2.877-.056-4.287-.334-3.908-.835-5.264-4.677-5.427v-4.884l.835-.163c2.116-.108 3.007-.76 3.508-2.768.223-1.14.334-2.279.39-3.473.167-2.225.111-4.504.501-6.729.557-3.202 2.561-4.721 5.958-4.938.946-.055 1.893 0 3.007 0v4.396c-.446.054-.836.108-1.281.108-2.728-.163-2.84.76-3.063 2.985Zm5.29 10.149h-.056c-1.559-.055-2.95 1.14-3.006 2.659-.056 1.574 1.169 2.876 2.728 2.985h.167a2.83 2.83 0 0 0 3.007-2.605v-.163c0-1.574-1.281-2.876-2.84-2.876Zm9.91 0c-1.558-.055-2.839 1.14-2.839 2.605v.27c0 1.683 1.17 2.769 2.951 2.769 1.726 0 2.84-1.086 2.84-2.877-.056-1.682-1.225-2.822-2.951-2.767Zm10.135 0c-1.615-.055-2.951 1.194-3.007 2.767 0 1.574 1.28 2.822 2.895 2.822h.056c1.447.272 2.95-1.14 3.006-2.767.112-1.52-1.336-2.822-2.95-2.822Zm13.975.217c-1.838-.054-2.728-.651-3.23-2.388a17.01 17.01 0 0 1-.5-3.31c-.112-2.063-.112-4.125-.279-6.241-.334-4.884-3.953-6.62-9.243-5.752v4.233h2.116c1.114 0 2.005.434 2.116 1.627.111 1.086.111 2.225.223 3.365.222 2.225.334 4.504.723 6.73.335 1.844 1.615 3.2 3.23 4.286-2.784 1.845-3.62 4.45-3.786 7.38-.056 2.008-.112 4.07-.223 6.079-.111 1.845-.78 2.442-2.673 2.496-.556 0-1.058.054-1.67.108v4.342c1.114 0 2.171.054 3.174 0 3.173-.163 5.122-1.683 5.735-4.722a38.73 38.73 0 0 0 .5-5.046c.112-1.52.112-3.094.28-4.613.222-2.388 1.335-3.365 3.785-3.527.223-.055.446-.055.668-.163v-4.884c-.39.054-.668 0-.946 0Z" fill="#6A6A6A"/></svg>
